Assets/Icons/magnifying-glass.svg

<svg xmlns="http://www.w3.org/2000/svg" viewBox="0 0 512 512" style="height: 512px; width: 512px;">
    <g class="" transform="translate(0,0)" style="touch-action: none;">
        <path d="M333.78 20.188c-39.97 0-79.96 15.212-110.405 45.656-58.667 58.667-60.796 152.72-6.406 213.97l-15.782 15.748 13.25 13.25 15.75-15.78c61.248 54.39 155.3 52.26 213.968-6.407 60.887-60.886 60.888-159.894 0-220.78C413.713 35.4 373.753 20.187 333.78 20.187zm0 18.562c35.15 0 70.285 13.44 97.158 40.313 53.745 53.745 53.744 140.6 0 194.343-51.526 51.526-133.46 53.643-187.5 6.375l.218-.217c-2.35-2.05-4.668-4.17-6.906-6.407-2.207-2.206-4.288-4.496-6.313-6.812l-.218.22c-47.27-54.04-45.152-135.976 6.374-187.502C263.467 52.19 298.63 38.75 333.78 38.75zm0 18.813c-30.31 0-60.63 11.6-83.81 34.78-46.362 46.362-46.362 121.234 0 167.594 10.14 10.142 21.632 18.077 33.905 23.782-24.91-19.087-40.97-49.133-40.97-82.94 0-15.323 3.292-29.888 9.22-43-4.165 20.485.44 40.88 14.47 54.907 24.583 24.585 68.744 20.318 98.624-9.562 29.88-29.88 34.146-74.04 9.56-98.625-2.375-2.376-4.943-4.473-7.655-6.313 45.13 8.648 79.954 46.345 84.25 92.876 4.44-35.07-6.82-71.726-33.813-98.72-23.18-23.18-53.47-34.78-83.78-34.78zM176.907 297.688L42.094 432.5l34.562 34.563L211.47 332.25l-34.564-34.563zM40 456.813L24 472.78 37.22 486l15.968-16L40 456.812z"
              fill="#fff" fill-opacity="1"></path>
    </g>
</svg>

<?xml version="1.0" encoding="UTF-8" standalone="no"?>
<!DOCTYPE svg PUBLIC "-//W3C//DTD SVG 1.1//EN" "http://www.w3.org/Graphics/SVG/1.1/DTD/svg11.dtd">
<svg width="100%" height="100%" viewBox="0 0 512 512" version="1.1" xmlns="http://www.w3.org/2000/svg" xmlns:xlink="http://www.w3.org/1999/xlink" xml:space="preserve" xmlns:serif="http://www.serif.com/" style="fill-rule:evenodd;clip-rule:evenodd;stroke-linejoin:round;stroke-miterlimit:2;">
    <g transform="matrix(6.12323e-17,1,-1,6.12323e-17,510.004,-3.81681)">
        <path d="M333.78,20.188C293.81,20.188 253.82,35.4 223.375,65.844C164.708,124.511 162.579,218.564 216.969,279.814L201.187,295.562L214.437,308.812L230.187,293.032C291.435,347.422 385.487,345.292 444.155,286.625C505.042,225.739 505.043,126.731 444.155,65.845C413.713,35.4 373.753,20.187 333.78,20.187L333.78,20.188ZM333.78,38.75C368.93,38.75 404.065,52.19 430.938,79.063C484.683,132.808 484.682,219.663 430.938,273.406C379.412,324.932 297.478,327.049 243.438,279.781L243.656,279.564C241.306,277.514 238.988,275.394 236.75,273.157C234.543,270.951 232.462,268.661 230.437,266.345L230.219,266.565C182.949,212.525 185.067,130.589 236.593,79.063C263.467,52.19 298.63,38.75 333.78,38.75ZM333.78,57.563C303.47,57.563 273.15,69.163 249.97,92.343C203.608,138.705 203.608,213.577 249.97,259.937C260.11,270.079 271.602,278.014 283.875,283.719C258.965,264.632 242.905,234.586 242.905,200.779C242.905,185.456 246.197,170.891 252.125,157.779C247.96,178.264 252.565,198.659 266.595,212.686C291.178,237.271 335.339,233.004 365.219,203.124C395.099,173.244 399.365,129.084 374.779,104.499C372.404,102.123 369.836,100.026 367.124,98.186C412.254,106.834 447.078,144.531 451.374,191.062C455.814,155.992 444.554,119.336 417.561,92.342C394.381,69.162 364.091,57.562 333.781,57.562L333.78,57.563ZM176.907,297.688L42.094,432.5L76.656,467.063L211.47,332.25L176.906,297.687L176.907,297.688ZM40,456.813L24,472.78L37.22,486L53.188,470L40,456.812L40,456.813Z" style="fill:white;fill-rule:nonzero;"/>
    </g>
</svg>
